svg/u1f3a9.svg

<svg viewBox="0 0 128 128" xmlns="http://www.w3.org/2000/svg">
  <g>
    <path d="M98.92,20c-5.42-1.85-18.45-3.69-34.86-3.69S35.47,18.08,29.2,20c-3.94,1.21-4.99,3.56-4.63,6.7 c0.22,1.85,0.6,3.37,0.6,3.37s4.04,20.29,4.02,35.11c-0.02,14.68-2.51,29.25-2.51,29.25s15,5.99,37.38,6.28 c22.38-0.29,35.97-5.38,35.97-5.38s-2.48-14.58-2.51-29.25c-0.02-14.82,5.43-36.01,5.43-36.01s0.26-1.36,0.48-3.09 C103.81,23.99,102.76,21.31,98.92,20z" fill="#424242"/>
    <path d="M119.06,77.57c-4.14-2.43-15.73,4.56-22.06,5.03c-8.86,0.66-60.38,2.2-68.97-0.1 c-2.65-0.71-13.64-7.88-19.1-4.93c-4.27,2.31-6.68,11.03-2.45,18.2c5.69,9.64,19.94,19.92,57.52,19.92s51.83-10.28,57.52-19.92 C125.75,88.59,123.29,80.05,119.06,77.57z" fill="#424242"/>
    <path d="M8.91,84.41c-1.23,1.66-0.81,3.93-0.14,5.73c0.71,1.91,1.8,3.73,3.08,5.31 c0.45,0.56,3.82,3.75,5.24,4.77c-0.64-1.02-0.86-2.3-0.58-3.47c0.63-2.68,3.5-3.63,5.68-4.79c2.32-1.24,8.59-4.03,5.96-5.45 C23.63,84.08,12.18,80.01,8.91,84.41z" fill="#212121"/>
    <path d="M120.33,84.38c-0.4-6.37-27.09,4.1-27.09,4.1s-3.03-20.77,2.14-55.56c0.19-1.28,0.64-4.15-4.09-3.4 c-6.3,0.99-14.31,1.25-20.24,1.6c-4.52,0.27-5.81,0.65-6.54,6.33c-0.52,4.03-3.14,46.68-1.46,56.67 c0.47,2.79,13.19,8.92,28.93,10.29c8.53,0.74,12.07,0,12.07,0C109.43,101.99,120.96,94.44,120.33,84.38z" fill="#212121"/>
    <path d="M119.06,77.57c0,0,3.34,7.7-1.86,15.67c-7.24,11.09-25.15,17.39-53.2,17.42 c-28.05-0.04-45.96-6.33-53.2-17.42c-5.2-7.96-1.86-15.67-1.86-15.67c-6.2,3.48-6.02,12.17-2.44,18.2 c5.69,9.6,19.9,19.81,57.23,19.91v0c0.09,0,0.18,0,0.27,0c0.09,0,0.18,0,0.27,0v0c37.33-0.1,51.54-10.32,57.23-19.91 C125.08,89.74,125.27,81.04,119.06,77.57z" fill="#757575"/>
    <path d="M98.35,77.06c-0.04-0.72-0.1-1.14-0.95-1.26c0,0-21.55,1.35-34.36,1.35 c-12.8,0-33.63-1.41-33.63-1.41c-0.85,0.12-0.83,0.5-0.87,1.21c-0.21,3.42-0.84,8.63-1.1,10.65c-0.06,0.51,0.22,0.99,0.69,1.19 c3.11,1.27,15.21,5.64,34.91,5.64c19.88,0,32.05-4.45,35.02-5.68c0.43-0.18,0.71-0.6,0.69-1.07C98.69,85.65,98.5,80.03,98.35,77.06 z" fill="#BB303D"/>
    <path d="M38.96,74.14c0,0,8.65,0.6,10.25,0.6s1.64-0.99,1.73-2.24c0.59-8.38-0.02-33.35-1.01-38.35 c-0.62-3.12-2.05-2.86-3.51-3.05c-2-0.26-7.71-0.82-9.15-0.96s-3.45-0.2-2.87,3.81c2.18,14.84,2.99,23.5,3.04,38.1 C37.45,72.81,37.08,74,38.96,74.14z" fill="#757575"/>
    <path d="M38.08,91.81c3.17,0.66,7.01,1.46,11.5,1.91c0.85,0.09,1.58-0.54,1.57-1.33l0.08-14.21 c-0.01-0.73-0.34-1.31-1.13-1.34c-4.24-0.18-7.97-0.32-11.67-0.56c-0.91-0.06-1.17,0.54-1.18,1.22l-0.27,13.01 C36.97,91.13,37.43,91.67,38.08,91.81z" fill="#ED6C66"/>
    <ellipse cx="63.44" cy="23.34" rx="36.19" ry="4.81" fill="#757575"/>
  </g>
</svg>

<svg viewBox="0 0 128 128" xmlns="http://www.w3.org/2000/svg">
  <defs/>
  <path d="M98.92,20 C93.5,18.15 80.47,16.31 64.06,16.31 C47.65,16.31 35.47,18.08 29.2,20 C25.26,21.21 24.21,23.56 24.57,26.7 C24.79,28.55 25.17,30.07 25.17,30.07 C25.17,30.07 29.21,50.36 29.19,65.18 C29.17,79.86 26.68,94.43 26.68,94.43 C26.68,94.43 41.68,100.42 64.06,100.71 C86.44,100.42 100.03,95.33 100.03,95.33 C100.03,95.33 97.55,80.75 97.52,66.08 C97.5,51.26 102.95,30.07 102.95,30.07 C102.95,30.07 103.21,28.71 103.43,26.98 C103.81,23.99 102.76,21.31 98.92,20 Z" fill="#424242"/>
  <path d="M119.06,77.57 C114.92,75.14 103.33,82.13 97,82.6 C88.14,83.26 36.62,84.8 28.03,82.5 C25.38,81.79 14.39,74.62 8.93,77.57 C4.66,79.88 2.25,88.6 6.48,95.77 C12.17,105.41 26.42,115.69 64,115.69 C101.58,115.69 115.83,105.41 121.52,95.77 C125.75,88.59 123.29,80.05 119.06,77.57 Z" fill="#424242"/>
  <path d="M8.91,84.41 C7.68,86.07 8.1,88.34 8.77,90.14 C9.48,92.05 10.57,93.87 11.85,95.45 C12.3,96.01 15.67,99.2 17.09,100.22 C16.45,99.2 16.23,97.92 16.51,96.75 C17.14,94.07 20.01,93.12 22.19,91.96 C24.51,90.72 30.78,87.93 28.15,86.51 C23.63,84.08 12.18,80.01 8.91,84.41 Z" fill="#212121"/>
  <path d="M120.33,84.38 C119.93,78.01 93.24,88.48 93.24,88.48 C93.24,88.48 90.21,67.71 95.38,32.92 C95.57,31.64 96.02,28.77 91.29,29.52 C84.99,30.51 76.98,30.77 71.05,31.12 C66.53,31.39 65.24,31.77 64.51,37.45 C63.99,41.48 61.37,84.13 63.05,94.12 C63.52,96.91 76.24,103.04 91.98,104.41 C100.51,105.15 104.05,104.41 104.05,104.41 C109.43,101.99 120.96,94.44 120.33,84.38 Z" fill="#212121"/>
  <path d="M119.06,77.57 C119.06,77.57 122.4,85.27 117.2,93.24 C109.96,104.33 92.05,110.63 64,110.66 C35.95,110.62 18.04,104.33 10.8,93.24 C5.6,85.28 8.94,77.57 8.94,77.57 C2.74,81.05 2.92,89.74 6.5,95.77 C12.19,105.37 26.4,115.58 63.73,115.68 L63.73,115.68 C63.82,115.68 63.91,115.68 64,115.68 C64.09,115.68 64.18,115.68 64.27,115.68 L64.27,115.68 C101.6,115.58 115.81,105.36 121.5,95.77 C125.08,89.74 125.27,81.04 119.06,77.57 Z" fill="#757575"/>
  <path d="M98.35,77.06 C98.31,76.34 98.25,75.92 97.4,75.8 C97.4,75.8 75.85,77.15 63.04,77.15 C50.24,77.15 29.41,75.74 29.41,75.74 C28.56,75.86 28.58,76.24 28.54,76.95 C28.33,80.37 27.7,85.58 27.44,87.6 C27.38,88.11 27.66,88.59 28.13,88.79 C31.24,90.06 43.34,94.43 63.04,94.43 C82.92,94.43 95.09,89.98 98.06,88.75 C98.49,88.57 98.77,88.15 98.75,87.68 C98.69,85.65 98.5,80.03 98.35,77.06 Z" fill="#BB303D"/>
  <path d="M38.96,74.14 C38.96,74.14 47.61,74.74 49.21,74.74 C50.81,74.74 50.85,73.75 50.94,72.5 C51.53,64.12 50.92,39.15 49.93,34.15 C49.31,31.03 47.88,31.29 46.42,31.1 C44.42,30.84 38.71,30.28 37.27,30.14 C35.83,30 33.82,29.94 34.4,33.95 C36.58,48.79 37.39,57.45 37.44,72.05 C37.45,72.81 37.08,74 38.96,74.14 Z" fill="#757575"/>
  <path d="M38.08,91.81 C41.25,92.47 45.09,93.27 49.58,93.72 C50.43,93.81 51.16,93.18 51.15,92.39 L51.23,78.18 C51.22,77.45 50.89,76.87 50.1,76.84 C45.86,76.66 42.13,76.52 38.43,76.28 C37.52,76.22 37.26,76.82 37.25,77.5 L36.98,90.51 C36.97,91.13 37.43,91.67 38.08,91.81 Z" fill="#ED6C66"/>
  <path d="M99.63,23.34 A36.19 4.81 0 1 1 27.25,23.34 A36.19 4.81 0 1 1 99.63,23.34 Z" fill="#757575"/>
</svg>
